X: 19880
T: JF's
R: reel
M: 4/4
K: Amajor
||A,B,=C^C EA,CE|E2AE A2cA|EAAG ABcA|B2Bc BAFE|
A,B,=C^C EA,CE|E2AE A2cA|EAAG ABcA|1 BAGB AFEC:|2 BAGB A2dc||
BGEC D3B,|A,B,CE DEFD|EAAG ABcA|B2Bc BAGA|
BGEC D/D/D DB,|CB,CE DEFD|EAAG ABcA|BAGB A2dc|
BGEC DCDB,|CB,CE DEFD|EAAG ABcA|B2ga gfec|
BGEC D2DB,|A,B,CE DEFD|EAAG ABcA|BAGB AFEC||

